X:1
T:Mr. Alexander Munro's (Braemar)
T:Mr. Alexander Munro's (Braemar)
T:Alexander Walker
C:Alexander Walker
L:1/8
M:4/4
K:G
V:1 treble 
V:1
 g | d<BB>A G>AG>D | E>DG>B, (A2 A>)g | d<BB>A G>AG>D | (3EFG (3DEC B,<G, G,>g | d<BB>A G>AG>D | %6
 TE>DG>B, (A2 A,>)f | g>bg>e f>af>d | B>e^d>f g<e e || f | g/f/e/^d/ b>d Te2 B>f | g>db>A B<dd>f | %12
 g/f/e/^d/ g>d e2 B>G | F>dA>B F>A A>f | g/f/e/^d/ b>d e2 B>f | g>eb>^A B<dd>f | g<bf<a e<gB>G | %17
 E<AD>F G<G, G, || %18

